X: 20541
T: AUF BRUEDER! LASST UNS LUSTIG LEBEN.
T: RISE BROTHER! LET US ENJOY A LIFE OF PLEASURE.
O: Burschen melody.
Q: "With energy."
%R: waltz
B: W. Hamilton "Universal Tune-Book" Vol. 2 Glasgow 1846 p.54 #1
S: http://s3-eu-west-1.amazonaws.com/itma.dl.printmaterial/book_pdfs/hamiltonvol2web.pdf
Z: 2016 John Chambers <jc:trillian.mit.edu>
M: 3/4
L: 1/8
K: G
% - - - - - - - - - - - - - - - - - - - - - - - - -
d2 |\
d4g2 | d4B2 | (c2A2)d2 | B2G2D2 |!f!\
GGG GGG | G4 d2 | d4 g2 | d4 B2 |\
(c2A2)d2 | B2G2D2 !f!| GGG GGG | G4 d2 |\
(g2f2)e2 | (d2c2)B2 |
c4d2 | e4f2 |\
(g2f2)e2 | d4g2 |\
(a2g2)f2 | g4 !f!D2 | GGG GGG | !ff!G4 A2 |\
BBB BBB | !fff!B4d2 | ggg ggg | Hg4 |]
% - - - - - - - - - - - - - - - - - - - - - - - - -
